X:306
T:Hambleton's Round O
C:John Young, 1713
%%MIDI gchord ccc
%%MIDI beat 100 95 80
%%MIDI program 72
%%MIDI chordprog 52
S:Colin Hume's website,  colinhume.com  - chords can also be printed below the stave.
Q:1/2=96
%%MIDI chordname dim 0 3 6 9
M:3/2
L:1/4
K:Cm
P:A
|: "Cm"cG Gc "G7"=B2 | "Cm"cG Ge "G7"d2 | "Cm"cd/e/ "Ab"fe "Fm"dc |1 "G7"=B3 c d2 :|2 "G7"c3 =B "Cm"c2 ||
P:B
"Eb"eB-Be "Bb"d2 | "Eb"eB-Be "Bb"d2 | "Eb"ed/c/ Be "Cm"eg | "Bb7"e3 d "Eb"e2 |
"Cm"gg/f/ eg "Fm"ag | "Bb"ff/e/ df "G7/B"gf | "Cdim"ee/d/ cd/e/ f/e/d/c/ | "G7"=B3 c d2 |]

